X:100
T:The Lass and the Money is All My Own
Z:Jack Campin, http://www.campin.me.uk/
S:Northumbrian Minstrelsy
M:6/8
L:1/8
K:G
e|dBG GAB|c2B A2G|dBG GAB|A2B c2
e|dBG GAB|c2B A2G|BdB AcA|G2G G2:|
d|ece dBd|ece dBd|efg dBG|A2B c2
e|def gfe|dcB A2F|BdB AcA|G2G G2:|

